src/images/GeneFit/D2C5.svg

<svg fill="none" height="101" viewBox="0 0 100 101" width="100" xmlns="http://www.w3.org/2000/svg"><g stroke="#ec8539" stroke-linecap="round" stroke-linejoin="round" stroke-width="6.5"><path d="m6 4h43.8099l-43.8099 46h46"/><path d="m63 27h31l-31 37h31"/><path d="m26 71h23.5248l-23.5248 26h26"/></g></svg>

<svg width="100" height="101" viewBox="0 0 100 101" fill="none" xmlns="http://www.w3.org/2000/svg">
<path d="M6 4H49.8099L6 50H52" stroke="#EC8539" stroke-width="6.5" stroke-linecap="round" stroke-linejoin="round"/>
<path d="M63 27H94L63 64H94" stroke="#EC8539" stroke-width="6.5" stroke-linecap="round" stroke-linejoin="round"/>
<path d="M26 71H49.5248L26 97H52" stroke="#EC8539" stroke-width="6.5" stroke-linecap="round" stroke-linejoin="round"/>
</svg>
